img/vector/triangle.svg

<svg width="32" height="36" viewBox="0 0 32 36" fill="none" xmlns="http://www.w3.org/2000/svg">
<path d="M3.4279 1.21921L30.1909 16.6707C31.2697 17.2936 31.2697 18.8512 30.1909 19.4742L3.4279 34.9257C2.34906 35.5486 1 34.7698 1 33.5239V2.62093C1 1.37511 2.34837 0.596299 3.4279 1.21921Z" fill="white"/>
<path d="M30.1909 16.6707L3.42789 1.21922C3.26645 1.12638 3.09946 1.07372 2.93178 1.03976L28.8051 15.9778C29.8839 16.6007 29.8839 18.1584 28.8051 18.7813L2.0421 34.2328C1.80029 34.3721 1.54599 34.4323 1.29517 34.4413C1.7497 35.0913 2.65393 35.3719 3.42789 34.9257L30.1909 19.4742C31.2697 18.8513 31.2697 17.2936 30.1909 16.6707Z" fill="white"/>
<path d="M3.4279 1.21921L30.1909 16.6707C31.2697 17.2936 31.2697 18.8512 30.1909 19.4742L3.4279 34.9257C2.34906 35.5486 1 34.7698 1 33.524V2.62093C1 1.37511 2.34837 0.596299 3.4279 1.21921Z" stroke="white" stroke-miterlimit="10"/>
</svg>

<svg width="32" height="36" fill="none" xmlns="http://www.w3.org/2000/svg"><path d="M3.428 1.22 30.19 16.67a1.619 1.619 0 0 1 0 2.804L3.428 34.926A1.619 1.619 0 0 1 1 33.524V2.62a1.619 1.619 0 0 1 2.428-1.402Z" fill="#fff"/><path d="M30.19 16.67 3.429 1.22a1.624 1.624 0 0 0-.496-.18l25.873 14.938a1.619 1.619 0 0 1 0 2.803L2.042 34.233c-.242.14-.496.2-.747.208.455.65 1.359.93 2.133.485L30.19 19.474a1.619 1.619 0 0 0 0-2.803Z" fill="#fff"/><path d="M3.428 1.22 30.19 16.67a1.619 1.619 0 0 1 0 2.804L3.428 34.926A1.619 1.619 0 0 1 1 33.524V2.621a1.619 1.619 0 0 1 2.428-1.402Z" stroke="#fff" stroke-miterlimit="10"/></svg>
